X: 34617
T: Road South West, The
R: jig
M: 6/8
K: Dmixolydian
GED d^cd|A2 B cBc|Ad^c d2 e|fd^c d2 =c|
Ade fde|Ace d(3efg|ada gce|dAG (3FGA F|
GED dfd|ADB cBc|Ad^c d2 e|fd^c d2 =c|
Ade dcA|g2 a gfg|afd ecA|AGE D2 d|
|:dag cde|dAG FGA|dag cde|Ad^c d2 =c|
Ade dcA|gfa gfg|afd ecA|1 AGE D2 d:|2 AGE D2 A||

